X:1
T:Ő az Út, az Élet
T: 
C:Unknown
Z:Public Domain
L:1/8
Q:1/4=120
M:4/4
K:G
V:1 treble nm="MusicXML Part"
%%MIDI program 0
V:1
 E3 ^D E3 D | E2 G4 z2 | D3 ^C D3 C | D2 G4 z2 | F3 ^E F3 E | F2 A4 z2 | G3 F G2 F2 | G2 B4 z2 | %8
w: Õ az Út, az|É- let,|Õ a nagy í-|gé- ret,|Õ a kez- det|és vég|Ben- ne a tel-|jes- ség!|
 B6 B2 | c3- B B4 | B6 A2 | A3- G G4 | G6 E2 | E3- D D4 | F6- G2 | G4 z4 |] %16
w: Al- le-|lu- * ja,|al- le-|lu- * ja,|al- le-|lu- * ja,|a- *|men.|

